X: 1
T: Captain McGuire
R: reel
Z: 2009 John Chambers <jc:trillian.mit.edu>
N: PDF MS of unknown origin from Mike Briggs <briggslaw:yahoo.com> 2009-5-7
N: Tune labelled "Nan F-W, via EF"
M: C|
L: 1/8
K: D
FG \
|: "D"ABAG F2A2 | d2e2 f2ef |  "G"g2ag "A7"f2e2 |  "D"d2f2 "A7"A2FG \
|  "D"ABAG F2A2 | d2e2 f2ef |  "G"g2ag "A7"f2e2 |1 "D"d2f2 "A7"A2FG :|2  "D"d6   d2   ||
|: "A"e3e  e2d2 | c2e2 a4   |     e3e      e2f2 |  "G"g2d2     B2G2 \
|  "A"e3e  e2d2 | c2e2 a3f  | "E7"efed     c2B2 |1 "A"A6         c2 :|2 "A7"ABAG F2G2 ||
[| "D"ABAG F2A2 | d2e2 f2ef |  "G"g2ag "A7"f2e2 |  "D"d2f2 "A7"A2FG \
|  "D"ABAG F2A2 | d2e2 f2ef |  "G"g2ag "A7"f2e2 |  "D"d6            |]

